svg/u1f236.svg

<svg viewBox="0 0 128 128" xmlns="http://www.w3.org/2000/svg">
  <g>
    <path d="M116,4H12c-4.42,0-8,3.58-8,8v104c0,4.42,3.58,8,8,8h104c4.42,0,8-3.58,8-8V12 C124,7.58,120.42,4,116,4z" fill="#F77E00"/>
    <path d="M109.7,4H11.5C7.37,4.03,4.03,7.37,4,11.5v97.9c-0.01,4.14,3.34,7.49,7.48,7.5c0.01,0,0.01,0,0.02,0 h98.1c4.14,0.01,7.49-3.34,7.5-7.48c0-0.01,0-0.01,0-0.02V11.5c0.09-4.05-3.13-7.41-7.18-7.5C109.85,4,109.77,4,109.7,4z" fill="#FF9800"/>
    <path d="M39.7,12.9c0-2.3-1.6-3-10.8-2.7c-7.7,0.3-11.5,1.2-13.8,4 s-2.9,8.5-3,15.3c0,4.8,0,9.3,2.5,9.3c3.4,0,3.4-7.9,6.2-12.3C26.2,17.8,39.7,15.9,39.7,12.9z" opacity="0.75" fill="#FFBD52" enable-background="new "/>
    <path d="M52.8,37.5c-1.3,2.5-2.5,5-3.9,7.5c-0.28,0.48-0.11,1.09,0.37,1.37c0.16,0.09,0.35,0.14,0.53,0.13 h40.3c1.66,0,3,1.34,3,3v44.4c0,4.8-0.9,7.4-4.4,8.8c-3,1.3-7.5,1.4-14.1,1.4c-1.36,0.03-2.56-0.88-2.9-2.2 c-0.2-0.7-0.4-1.4-0.7-2.2c-0.55-1.56,0.27-3.28,1.83-3.83c0.34-0.12,0.71-0.18,1.07-0.17c3.9,0.1,7.2,0.1,8.4,0 c1.6,0,2.1-0.5,2.1-1.9v-7.2c0.03-0.52-0.36-0.97-0.88-1c-0.04,0-0.08,0-0.12,0H46.9c-0.48-0.01-0.9,0.33-1,0.8 c-1.1,5.76-3.61,11.15-7.3,15.7c-1.06,1.27-2.96,1.44-4.23,0.37c-0.14-0.11-0.26-0.24-0.37-0.37c-0.68-0.81-1.42-1.58-2.2-2.3 c-1.11-1.13-1.15-2.92-0.1-4.1c6.1-7.1,6.7-16.4,6.7-24.4v-8.6c-0.01-0.55-0.46-0.99-1.01-0.99c-0.26,0-0.5,0.11-0.69,0.29 c-2.9,3.27-6.12,6.25-9.6,8.9c-1.3,1.02-3.18,0.79-4.2-0.5l-1.8-2.1c-1.05-1.28-0.87-3.17,0.4-4.22c0.03-0.03,0.06-0.05,0.1-0.08 c8.7-6.6,15.6-15.7,20.9-25.6c0.28-0.48,0.11-1.09-0.37-1.37c-0.16-0.09-0.35-0.14-0.53-0.13H22.9c-1.1,0-2-0.9-2-2v-4.3 c0-1.1,0.9-2,2-2h23.4c0.4,0.03,0.78-0.22,0.9-0.6c1.2-3.2,2.3-6.3,3.2-9.4c0.32-1.02,1.36-1.62,2.4-1.4l5.1,1.2 c1.12,0.32,1.78,1.47,1.5,2.6c-0.7,2.1-1.4,4.2-2.2,6.4c-0.22,0.51,0.01,1.1,0.52,1.32c0.12,0.05,0.25,0.08,0.38,0.08H102 c1.1,0,2,0.9,2,2v4.3c0,1.1-0.9,2-2,2H53.7C53.3,36.9,53,37.1,52.8,37.5z M84.4,77.1v-6.3c0.03-0.52-0.36-0.97-0.88-1 c-0.04,0-0.08,0-0.12,0H48.3c-0.55,0-1,0.45-1,1v0.6c0,1.8-0.1,3.7-0.2,5.6c-0.06,0.55,0.35,1.04,0.89,1.09 c0.03,0,0.07,0.01,0.11,0.01h35.3c0.52,0.03,0.97-0.36,1-0.88C84.4,77.18,84.4,77.14,84.4,77.1z M83.4,54.3H48.3 c-0.54,0.04-0.96,0.46-1,1v6.2c0.04,0.54,0.46,0.96,1,1h35.1c0.55,0,1-0.45,1-1v-6.2c0.03-0.52-0.36-0.97-0.88-1 C83.48,54.3,83.44,54.3,83.4,54.3z" fill="#FAFAFA"/>
  </g>
</svg>

<svg viewBox="0 0 128 128" xmlns="http://www.w3.org/2000/svg">
  <defs/>
  <path d="M116,4 L12,4 C7.58,4 4,7.58 4,12 L4,116 C4,120.42 7.58,124 12,124 L116,124 C120.42,124 124,120.42 124,116 L124,12 C124,7.58 120.42,4 116,4 Z" fill="#F77E00"/>
  <path d="M109.7,4 L11.5,4 C7.37,4.03 4.03,7.37 4,11.5 L4,109.4 C3.99,113.54 7.34,116.89 11.48,116.9 C11.49,116.9 11.49,116.9 11.5,116.9 L109.6,116.9 C113.74,116.91 117.09,113.56 117.1,109.42 C117.1,109.41 117.1,109.41 117.1,109.4 L117.1,11.5 C117.19,7.45 113.97,4.09 109.92,4 C109.85,4 109.77,4 109.7,4 Z" fill="#FF9800"/>
  <path d="M39.7,12.9 C39.7,10.6 38.1,9.9 28.9,10.2 C21.2,10.5 17.4,11.4 15.1,14.2 C12.8,17 12.2,22.7 12.1,29.5 C12.1,34.3 12.1,38.8 14.6,38.8 C18,38.8 18,30.9 20.8,26.5 C26.2,17.8 39.7,15.9 39.7,12.9 Z" fill="#FFBD52" opacity="0.75"/>
  <path d="M52.8,37.5 C51.5,40 50.3,42.5 48.9,45 C48.62,45.48 48.79,46.09 49.27,46.37 C49.43,46.46 49.62,46.51 49.8,46.5 L90.1,46.5 C91.76,46.5 93.1,47.84 93.1,49.5 L93.1,93.9 C93.1,98.7 92.2,101.3 88.7,102.7 C85.7,104 81.2,104.1 74.6,104.1 C73.24,104.13 72.04,103.22 71.7,101.9 C71.5,101.2 71.3,100.5 71,99.7 C70.45,98.14 71.27,96.42 72.83,95.87 C73.17,95.75 73.54,95.69 73.9,95.7 C77.8,95.8 81.1,95.8 82.3,95.7 C83.9,95.7 84.4,95.2 84.4,93.8 L84.4,86.6 C84.43,86.08 84.04,85.63 83.52,85.6 C83.48,85.6 83.44,85.6 83.4,85.6 L46.9,85.6 C46.42,85.59 46,85.93 45.9,86.4 C44.8,92.16 42.29,97.55 38.6,102.1 C37.54,103.37 35.64,103.54 34.37,102.47 C34.23,102.36 34.11,102.23 34,102.1 C33.32,101.29 32.58,100.52 31.8,99.8 C30.69,98.67 30.65,96.88 31.7,95.7 C37.8,88.6 38.4,79.3 38.4,71.3 L38.4,62.7 C38.39,62.15 37.94,61.71 37.39,61.71 C37.13,61.71 36.89,61.82 36.7,62 C33.8,65.27 30.58,68.25 27.1,70.9 C25.8,71.92 23.92,71.69 22.9,70.4 L21.1,68.3 C20.05,67.02 20.23,65.13 21.5,64.08 C21.53,64.05 21.56,64.03 21.6,64 C30.3,57.4 37.2,48.3 42.5,38.4 C42.78,37.92 42.61,37.31 42.13,37.03 C41.97,36.94 41.78,36.89 41.6,36.9 L22.9,36.9 C21.8,36.9 20.9,36 20.9,34.9 L20.9,30.6 C20.9,29.5 21.8,28.6 22.9,28.6 L46.3,28.6 C46.7,28.63 47.08,28.38 47.2,28 C48.4,24.8 49.5,21.7 50.4,18.6 C50.72,17.58 51.76,16.98 52.8,17.2 L57.9,18.4 C59.02,18.72 59.68,19.87 59.4,21 C58.7,23.1 58,25.2 57.2,27.4 C56.98,27.91 57.21,28.5 57.72,28.72 C57.84,28.77 57.97,28.8 58.1,28.8 L102,28.8 C103.1,28.8 104,29.7 104,30.8 L104,35.1 C104,36.2 103.1,37.1 102,37.1 L53.7,37.1 C53.3,36.9 53,37.1 52.8,37.5 Z M84.4,77.1 L84.4,70.8 C84.43,70.28 84.04,69.83 83.52,69.8 C83.48,69.8 83.44,69.8 83.4,69.8 L48.3,69.8 C47.75,69.8 47.3,70.25 47.3,70.8 L47.3,71.4 C47.3,73.2 47.2,75.1 47.1,77 C47.04,77.55 47.45,78.04 47.99,78.09 C48.02,78.09 48.06,78.1 48.1,78.1 L83.4,78.1 C83.92,78.13 84.37,77.74 84.4,77.22 C84.4,77.18 84.4,77.14 84.4,77.1 Z M83.4,54.3 L48.3,54.3 C47.76,54.34 47.34,54.76 47.3,55.3 L47.3,61.5 C47.34,62.04 47.76,62.46 48.3,62.5 L83.4,62.5 C83.95,62.5 84.4,62.05 84.4,61.5 L84.4,55.3 C84.43,54.78 84.04,54.33 83.52,54.3 C83.48,54.3 83.44,54.3 83.4,54.3 Z" fill="#FAFAFA"/>
</svg>
